X:1
T:Many Mansions Up There
T:R. Frank Lehman, 1900
T:Many Mansions Up There
T:Public Domain
T:Public Domain
C:R. Frank Lehman, 1900
Z:Public Domain
%%score ( 1 2 ) ( 3 4 )
L:1/8
M:4/4
K:Eb
V:1 treble 
V:2 treble 
V:3 bass 
V:4 bass 
V:1
 [B,E]2 | [EG]2 [EF]E [EG]2 [EB]2 | [Ec]2 [Ec]2 [EB]2 EE | [EG] [EG]3 [EG][EG] [DF]2 | E6 [B,E]2 | %5
w: 1.~Our|home- less and lone- ly|ior said, There are ma-|sions up there; No place|in the|
w: 2.~My|heav- en- ly Fa- ther’s|o’er- flows, With the ma-|sions up there; The joys|of that|
w: 3.~When|tired of my earth- ly|I know There are ma-|sions up there; Where death|ne- ver|
w: 4.~O|wan- d’rers of earth op-|with care, There are ma-|sions up there; You’re wel-|come to|
 [EG]2 [EF]E [EG]2 [EB]2 | [Ec]2 [Ec]2 [EB]2 EE | [EG] [EG]3 [EG][EG] [DF]2 | E6 ||"^Refrain" BB | %10
w: to lay His head, Yet|ma- ny man- sions up||||
w: no mor- tal knows, There|ma- ny man- sions up|are ma- ny man- sions|up|(up there),|
w: nor e- vils grow, There|ma- ny man- sions up||||
w: with us and share In|ma- ny man- sions up||||
 [Ge]2 [Ge]2 [Af][Ae] [Ec]2 | E2 D2 E2 B2 | [Ge]2 [Bd][Ac] [GB]2 [FA][EG] | %13
w: |||
w: sus has gone to pre-|pare (to pre- pare);|for you and one for me,|
w: |||
w: |||
 [DF]2 [Bd]>[Ac] [GB]2 [FA]2 | [EG]2 [EG]2 [_DG]2 (FE) | [CA]2 [CA]2 [Ec]2 [Ec][Ec] | %16
w: |||
w: If we trust Him to|take us there. * *||
w: |||
w: |||
 [EB] [Ee]2 [EG] [EG]2 [DF]2 | E6 |] %18
w: ||
w: ||
w: ||
w: ||
V:2
 x2 | x3 E x4 | x6 EE | x8 | E6 x2 | x3 E x4 | x6 EE | x8 | E6 || BB | x8 | B6 B2 | x8 | x8 | %14
w: |Sav-|ny man-||earth|the|there. *||||||||
w: |house|ny man-||place|are|there. There||there|Which Je-||There’s one|||
w: |home|ny man-||comes|are|there. *||||||||
w: |pressed|ny man-||come|those|there. *||||||||
 x6 _D2 | x8 | x8 | E6 |] %18
w: ||||
w: ||||
w: ||||
w: ||||
V:3
 [E,G,]2 | [E,B,]2 [E,A,][E,G,] [E,B,]2 [E,G,]2 | [A,,A,]2 [C,A,]2 [E,G,]2 [C,G,][C,G,] | %3
 [B,,B,] [B,,B,]3 [B,,B,][B,,B,] [B,,A,]2 | [E,G,]6 [E,G,]2 | %5
 [E,B,]2 [E,A,][E,G,] [E,B,]2 [E,G,]2 | [A,,A,]2 [C,A,]2 [E,G,]2 [C,G,][C,G,] | %7
 [B,,B,] [B,,B,]3 [B,,B,][B,,B,] [B,,A,]2 | [E,G,]6 || B,B, | [E,B,]2 [E,B,]2 [A,C][A,C] A,2 | %11
 [E,G,]2 [F,A,]2 [G,B,]2 B,2 | [E,B,]2 [E,E][E,E] [E,E]2 [D,B,][E,B,] | %13
 [B,,B,]2 [B,,B,]>[B,,B,] [B,,B,]2 [B,,B,]2 | [E,B,]2 [E,B,]2 [E,B,]2 (A,G,) | %15
 [A,,A,]2 [A,,A,]2 [A,,A,]2 [=A,,^F,][A,,F,] | [B,,G,] [B,,G,]2 [B,,B,] [B,,B,]2 [B,,A,]2 | %17
 [E,G,]6 |] %18
V:4
 x2 | x8 | x8 | x8 | x8 | x8 | x8 | x8 | x6 || B,B, | x6 A,2 | x6 B,2 | x8 | x8 | x6 E,2 | x8 | %16
 x8 | x6 |] %18

